brandFactory_export/3.Masa/Oferta online_3Masa.svg

<?xml version="1.0" encoding="UTF-8"?>
<svg width="24px" height="24px" viewBox="0 0 24 24" version="1.1" xmlns="http://www.w3.org/2000/svg" xmlns:xlink="http://www.w3.org/1999/xlink">
    <title>3.Masa/Oferta online_3Masa</title>
    <g id="Symbols" stroke="none" stroke-width="1" fill="none" fill-rule="evenodd">
        <g id="3.Masa/Oferta-online_3Masa" fill="#5CB615" fill-rule="nonzero">
            <path d="M3.68571429,0.0302521008 C4.05546218,0.0302521008 4.35798319,0.332773109 4.35798319,0.702521008 C4.35798319,1.3512605 4.35798319,1.86218487 6.29411765,1.86218487 L6.29411765,1.86218487 L7.61176471,1.86218487 C8.71764706,1.86218487 9.53109244,2.09411765 10.092437,2.56806723 C10.6336134,3.02184874 10.9058824,3.67394958 10.9058824,4.50084034 L10.9058824,4.50084034 L10.9058824,4.95798319 C12.7680672,5.06218487 14.2369748,5.62689076 15.2857143,6.63529412 C16.4991597,7.80504202 17.1142857,9.54285714 17.1142857,11.7983193 L17.1142857,11.7983193 L17.1142857,13.9831933 C17.2352941,14.1310924 17.3327731,14.3092437 17.4201681,14.4672269 C17.4571429,14.5344538 17.5109244,14.6319328 17.5579832,14.7058824 C17.6386555,14.6655462 17.7394958,14.605042 17.810084,14.5613445 C18.1630252,14.3495798 18.6,14.0806723 19.0201681,14.3260504 C19.4403361,14.5714286 19.4302521,15.0890756 19.4201681,15.502521 C19.4201681,15.5831933 19.4168067,15.697479 19.4201681,15.7882353 C19.5109244,15.7915966 19.6252101,15.7882353 19.7058824,15.7882353 C20.1226891,15.7781513 20.6403361,15.7680672 20.8823529,16.1882353 C21.1243697,16.6084034 20.8588235,17.0453782 20.6470588,17.3983193 C20.6067227,17.4689076 20.5462185,17.5697479 20.502521,17.6504202 C20.5764706,17.697479 20.6739496,17.7512605 20.7411765,17.7882353 C21.107563,17.989916 21.5647059,18.2386555 21.5647059,18.7327731 C21.5647059,19.2268908 21.107563,19.4789916 20.7445378,19.6739496 C20.6773109,19.7109244 20.5798319,19.7647059 20.5058824,19.8117647 C20.5462185,19.892437 20.6067227,19.9932773 20.6504202,20.0638655 C20.8621849,20.4168067 21.1310924,20.8537815 20.8857143,21.2739496 C20.6403361,21.6941176 20.1226891,21.6840336 19.7092437,21.6739496 C19.6285714,21.6739496 19.5142857,21.6705882 19.4235294,21.6739496 C19.4201681,21.7647059 19.4235294,21.8789916 19.4235294,21.9596639 C19.4336134,22.3764706 19.4436975,22.8941176 19.0235294,23.1361345 C18.6033613,23.3781513 18.1663866,23.112605 17.8134454,22.9008403 C17.7428571,22.8605042 17.6420168,22.8 17.5613445,22.7563025 C17.5142857,22.8302521 17.4605042,22.9277311 17.4235294,22.994958 C17.2218487,23.3613445 16.9697479,23.8184874 16.4789916,23.8184874 C15.9882353,23.8184874 15.7361345,23.3613445 15.5344538,22.994958 C15.497479,22.9277311 15.4436975,22.8302521 15.3966387,22.7563025 C15.3159664,22.7966387 15.2151261,22.8571429 15.1445378,22.9008403 C14.8184874,23.0991597 14.4218487,23.3378151 14.0352941,23.1865546 C13.0134454,23.7176471 11.7462185,23.9865546 10.2605042,23.9865546 C8.09243697,23.9865546 6.39831933,23.4184874 5.23193277,22.292437 C4.01848739,21.1226891 3.40336134,19.3848739 3.40336134,17.1294118 L3.40336134,17.1294118 L3.40336134,11.805042 C3.40336134,9.54621849 4.01848739,7.80840336 5.23529412,6.63529412 C6.27394958,5.63361345 7.73277311,5.07226891 9.57142857,4.96134454 L9.57142857,4.96134454 L9.57071808,4.39813191 C9.56148174,3.93129823 9.43217287,3.20672269 7.62184874,3.20672269 L7.62184874,3.20672269 L6.29747899,3.20672269 C5.14117647,3.20672269 4.38823529,3.03529412 3.8605042,2.65210084 C3.28907563,2.23865546 3.01344538,1.60336134 3.01344538,0.702521008 C3.01344538,0.332773109 3.31596639,0.0302521008 3.68571429,0.0302521008 Z M16.5596639,14.7428571 C16.5226891,14.7495798 16.4857143,14.7529412 16.4487395,14.7529412 C16.4285714,14.7529412 16.4084034,14.7495798 16.3882353,14.7495798 C16.1159664,14.8907563 15.9277311,15.6168067 15.6621849,15.687395 C15.3563025,15.7714286 14.7478992,15.1092437 14.4756303,15.2638655 C14.2033613,15.4184874 14.4689076,16.2823529 14.2504202,16.5042017 C14.0319328,16.7260504 13.1680672,16.4638655 13.010084,16.7294118 C12.8521008,16.994958 13.5142857,17.610084 13.4336134,17.9159664 C13.3529412,18.2117647 12.4722689,18.4134454 12.4722689,18.7327731 C12.4722689,19.0521008 13.3529412,19.2537815 13.4336134,19.5495798 C13.5176471,19.8554622 12.8554622,20.4638655 13.010084,20.7361345 C13.1647059,21.0084034 14.0285714,20.7394958 14.2504202,20.9613445 C14.4016807,21.1092437 14.3277311,21.5529412 14.3478992,21.8722689 C14.4352941,21.9294118 14.512605,22.0067227 14.5663866,22.097479 C14.589916,22.1378151 14.6067227,22.1781513 14.6235294,22.2218487 C14.9260504,22.1680672 15.4033613,21.7109244 15.6621849,21.7781513 C15.9579832,21.8588235 16.1596639,22.7394958 16.4789916,22.7394958 C16.7983193,22.7394958 17,21.8554622 17.2957983,21.7781513 C17.6016807,21.6941176 18.210084,22.3563025 18.4823529,22.2016807 C18.7546218,22.0470588 18.4890756,21.1831933 18.707563,20.9613445 C18.9260504,20.7394958 19.789916,21.0016807 19.9478992,20.7361345 C20.1058824,20.4705882 19.4436975,19.8554622 19.5243697,19.5495798 C19.6016807,19.2537815 20.4890756,19.0521008 20.4890756,18.7327731 C20.4890756,18.4134454 19.605042,18.2117647 19.5277311,17.9159664 C19.4436975,17.6134454 20.1058824,17.0016807 19.9512605,16.7294118 C19.7966387,16.4571429 18.9327731,16.7226891 18.7109244,16.5042017 C18.4890756,16.2857143 18.7512605,15.4218487 18.4857143,15.2638655 C18.2201681,15.1058824 17.605042,15.7680672 17.2991597,15.687395 C17.0268908,15.6134454 16.8386555,14.8638655 16.5596639,14.7428571 Z M17.5983193,19.1428571 C18.1361345,19.1428571 18.4756303,19.4789916 18.4756303,20.0201681 C18.4756303,20.5613445 18.1394958,20.897479 17.5983193,20.897479 C17.0571429,20.897479 16.7210084,20.5613445 16.7210084,20.0201681 C16.7210084,19.4789916 17.0571429,19.1428571 17.5983193,19.1428571 Z M17.605042,16.7495798 C17.7193277,16.605042 17.9310924,16.5781513 18.0756303,16.692437 L18.0756303,16.692437 L18.1315383,16.7469045 C18.2282627,16.8658549 18.2336134,17.0391357 18.1327731,17.1630252 L18.1327731,17.1630252 L15.3495798,20.7193277 C15.2352941,20.8638655 15.0235294,20.8907563 14.8789916,20.7764706 C14.7344538,20.6621849 14.707563,20.4504202 14.8218487,20.3058824 L14.8218487,20.3058824 Z M17.5983193,19.8117647 C17.4268908,19.8117647 17.3932773,19.8453782 17.3932773,20.0168067 C17.3932773,20.1882353 17.4302521,20.2218487 17.5983193,20.2218487 C17.7663866,20.2218487 17.8033613,20.1882353 17.8033613,20.0168067 C17.8033613,19.8453782 17.7697479,19.8117647 17.5983193,19.8117647 Z M15.3294118,16.5478992 C15.8705882,16.5478992 16.2067227,16.8840336 16.2067227,17.4252101 C16.2067227,17.9630252 15.8705882,18.302521 15.3294118,18.302521 C14.7882353,18.302521 14.4521008,17.9663866 14.4521008,17.4252101 C14.4521008,16.8840336 14.7882353,16.5478992 15.3294118,16.5478992 Z M15.3327731,17.2201681 C15.1613445,17.2201681 15.1277311,17.2571429 15.1277311,17.4252101 C15.1277311,17.5932773 15.1613445,17.6302521 15.3327731,17.6302521 C15.5042017,17.6302521 15.5378151,17.5966387 15.5378151,17.4252101 C15.5378151,17.2537815 15.5042017,17.2201681 15.3327731,17.2201681 Z M16.4666032,12.7244157 L16.3983193,12.7260504 C14.3647059,13.0084034 12.3142857,13.1495798 10.2605042,13.1462185 C8.20672269,13.1495798 6.15630252,13.0084034 4.12268908,12.7260504 C3.94117647,12.702521 3.77983193,12.8268908 3.74957983,13.005042 C3.71932773,13.189916 3.84369748,13.3613445 4.02857143,13.3915966 C6.09243697,13.6806723 8.17647059,13.8218487 10.2605042,13.8184874 C12.3445378,13.8218487 14.4285714,13.6806723 16.492437,13.3915966 C16.6705882,13.3613445 16.7915966,13.1966387 16.7714286,13.0184874 C16.7512605,12.8369748 16.5831933,12.702521 16.3983193,12.7260504 Z M10.2605042,7.57647059 C9.8907563,7.57647059 9.58823529,7.8789916 9.58823529,8.2487395 L9.58823529,8.2487395 L9.58823529,11.2302521 C9.58823529,11.6 9.8907563,11.902521 10.2605042,11.902521 C10.6302521,11.902521 10.9327731,11.6 10.9327731,11.2302521 L10.9327731,11.2302521 L10.9327731,8.2487395 C10.9327731,7.8789916 10.6302521,7.57647059 10.2605042,7.57647059 Z" id="Oferta-online_3Masa"></path>
        </g>
    </g>
</svg>

<svg width="24" height="24" viewBox="0 0 24 24" xmlns="http://www.w3.org/2000/svg"><path d="M3.686.03c.37 0 .672.303.672.673 0 .648 0 1.16 1.936 1.16h1.318c1.106 0 1.92.231 2.48.705.542.454.814 1.106.814 1.933v.457c1.862.104 3.331.669 4.38 1.677 1.213 1.17 1.828 2.908 1.828 5.163v2.185c.121.148.219.326.306.484.037.067.09.165.138.239.08-.04.181-.101.252-.145.353-.211.79-.48 1.21-.235.42.245.41.763.4 1.177 0 .08-.003.194 0 .285.09.004.205 0 .286 0 .417-.01.934-.02 1.176.4.242.42-.023.857-.235 1.21-.04.07-.1.172-.144.252.073.047.17.101.238.138.367.202.824.45.824.945 0 .494-.457.746-.82.94a4.71 4.71 0 00-.24.139c.041.08.102.181.145.252.212.353.481.79.236 1.21-.246.42-.763.41-1.177.4-.08 0-.195-.003-.285 0-.004.09 0 .205 0 .286.01.416.02.934-.4 1.176-.42.242-.858-.023-1.21-.235-.071-.04-.172-.101-.253-.145a4.71 4.71 0 00-.137.239c-.202.366-.454.823-.945.823-.49 0-.743-.457-.945-.823a4.71 4.71 0 00-.137-.239c-.081.04-.182.101-.252.145-.327.198-.723.437-1.11.286-1.022.53-2.289.8-3.774.8-2.169 0-3.863-.569-5.03-1.695-1.213-1.17-1.828-2.907-1.828-5.163v-5.324c0-2.259.615-3.997 1.832-5.17 1.039-1.001 2.498-1.563 4.336-1.674v-.563c-.01-.467-.139-1.191-1.95-1.191H6.298c-1.156 0-1.909-.172-2.436-.555-.572-.413-.848-1.049-.848-1.95 0-.37.303-.672.673-.672zM16.56 14.743a.619.619 0 01-.111.01l-.06-.003c-.273.14-.461.867-.727.937-.306.084-.914-.578-1.186-.423-.273.154-.007 1.018-.226 1.24-.218.222-1.082-.04-1.24.225-.158.266.504.881.424 1.187-.081.296-.962.497-.962.817 0 .32.88.52.962.817.084.305-.579.914-.424 1.186.155.272 1.019.003 1.24.225.152.148.078.592.098.911a.7.7 0 01.276.35c.302-.054.78-.511 1.038-.444.296.08.498.961.817.961.32 0 .521-.884.817-.96.306-.085.914.577 1.186.423.273-.155.007-1.019.226-1.24.218-.223 1.082.04 1.24-.226.158-.265-.504-.88-.424-1.186.078-.296.965-.498.965-.817 0-.32-.884-.521-.961-.817-.084-.303.578-.914.423-1.187-.154-.272-1.018-.006-1.24-.225-.222-.218.04-1.082-.225-1.24-.266-.158-.881.504-1.187.423-.272-.074-.46-.823-.74-.944zm1.038 4.4c.538 0 .878.336.878.877 0 .541-.337.877-.878.877-.54 0-.877-.336-.877-.877 0-.541.336-.877.877-.877zm.007-2.393a.336.336 0 01.47-.058l.057.055a.33.33 0 010 .416l-2.782 3.556a.336.336 0 01-.471.057.336.336 0 01-.057-.47zm-.007 3.062c-.171 0-.205.033-.205.205 0 .171.037.205.205.205.168 0 .205-.034.205-.205 0-.172-.033-.205-.205-.205zm-2.269-3.264c.542 0 .878.336.878.877 0 .538-.336.878-.878.878-.54 0-.877-.337-.877-.878 0-.541.336-.877.877-.877zm.004.672c-.172 0-.205.037-.205.205 0 .168.033.205.205.205.171 0 .205-.033.205-.205 0-.171-.034-.205-.205-.205zm1.134-4.496l-.069.002a44.102 44.102 0 01-6.137.42 44.102 44.102 0 01-6.138-.42.336.336 0 00-.094.666c2.063.289 4.147.43 6.232.426a44.426 44.426 0 006.231-.426c.179-.03.3-.195.28-.374a.334.334 0 00-.374-.292zM10.26 7.576a.674.674 0 00-.673.673v2.981c0 .37.303.673.673.673.37 0 .672-.303.672-.673V8.25a.674.674 0 00-.672-.673z" fill="#5CB615" fill-rule="nonzero"/></svg>
